X: 438
T: Seleneje Schito
T: Zeleneje zhito
O: Russia
M: 2/4
L: 1/8
Q: 1/4=84
K: Dm clef=treble
%%MIDI gchord fzzz
"A"AAGA  |"D"BAGF|"A"A3G/F/|E4     |\
"D"A,D^CD|"A"E2FE|"D"D4-   |D4     |
"D"A,D^CD|"A"E2FE|"D"D4    |"A"A,4 |\
"D"A,D^CD|"A"E2FE|"D"D4    |"Em"=C4|
"A"AAGA  |"D"BAGF|"A"A3G/F/|E4     |\
"D"A,D^CD|"A"E2FE|"D"D4-   |D4     |



